X:1
T:Sperate in Domino (Ferdinand di Lasso)
T:#
%%score { 1 | 2 } 3 { 4 | 5 } 6
L:1/8
Q:1/4=180
M:none
K:C
V:1 treble nm="Soprano I" snm="Soprano I"
V:2 treble 
V:3 treble nm="Alto" snm="Alto"
V:4 treble-8 nm="Tenor I" snm="Tenor I"
V:5 treble-8 
V:6 bass nm="Bass" snm="Bass"
V:1
"^Sperate in Domino""^Ferdinand di Lasso\n(15601609)" z8 (D6 E2 | F2 G2 A4) A8 | F4 _B4 A4 d4 | %3
w: Spe\- *|* * * ra-|te in Do- mi-|
 d8 z8 | z16 | z16 | z4 A8 (d4- | d4 ^c2 B2 c4) c4 | d4 A4 A8 | A4 (G6 ^FE F4) | (G6 A2 _B4) B4 | %11
w: no,|||et om\-|* * * * nis|con- gre- ga-|ti- o * * *|po\- * * pu-|
 A8 z8 | z8 z4 d4 | ^c4 d4 A8 | z4 d8 ^c4 | d8 A8- | A16 | (A6 GF E4) D4 | E4 E4 z8 | z8 B8 | %20
w: li|ef-|fun- di- te|co- ram|il- lo||cor\- * * * da|ve- stra|ef-|
 ^c4 c4 d4 A4- | A4 A4 A4 d4 | G4 A4 (G6 A2 | B12 A4- | A2 ^G^F G4) A8 | z16 | z8 c8 | B4 A4 G8 | %28
w: fun- di- te co\-|* ram il- lo|cor- da ve\- *||* * * * stra,||De-|us ad- iu-|
 F8 E8 | ^F8 z8 | z8 z4 A4 | ^G4 A4 B4 (A4- | A2 ^G^F G4) c4 c4 | B4 c4 e8 | e4 c4 B4 A4- | %35
w: tor no-|ster,|De-|us ad- iu- tor|* * * * no- ster|in ae- ter-|num, De- us ad\-|
 A4 G8 ^F4 | A4 A4 z8 |[Q:1/4=177] z8[Q:1/4=173] z4[Q:1/4=170] A4- | %38
w: * iu- tor|no- ster|in|
[Q:1/4=168] A4[Q:1/4=164] A8[Q:1/4=161] E4 |[Q:1/4=160] ^F16 |]"^Secunda pars" z16 | A8 c4 B4 | %42
w: * ae- ter-|num.||No- li- te|
 A8 A4 G4 | (F2 G2 A2 F2 G2 A2 G4) | C8 G4 _B4 | A12 F4 | z4 z2 D2 F4 E4- | E4 G4 A8 | A8 z8 | %49
w: spe- ra- re|in * * * * * *|i- ni- qui-|ta- te|no- li- te|* spe- ra-|re|
 z16 | z8 F8 | G4 (A6 F2 G4) | d4 A8 E4 | z4 G8 F4 | _B8 A4 A4 | G4 F8 E4 | (D8 A8) | G4 F8 E4 | %58
w: |in|i- ni\- * *|qui- ta- te,|et ra-|pi- nas, et|ra- pi- nas,|et *|ra- pi- nas|
 z8 z4 E4 | G4 F4 F8 | E4 c8 _B4 | A8 z8 | z8 z4 F4 | G4 (A6 G2 E2 F2 | E8) E4 E4 | (F6 G2 A4) A4 | %66
w: no-|li- te con-|cu- pi- sce-|re,|no-|li- te * * *|* con- cu-|pi\- * * sce-|
 A8 z8 | z16 | z4 F4 (A6 GF | G4) G4 F8 | z8 (A6 B2 | c4) A8 A4 | ^F8 z8 | z4 A8 G4- | %74
w: re,||di- vi\- * *|* ti- ae|si *|* af- flu-|ant,|no- li\-|
 G4 A4 G4 F4 | E6 E2 ^F8 |[Q:1/4=178] z4[Q:1/4=175] A4[Q:1/4=171] _B4[Q:1/4=168] A4 | %77
w: * te co ap-|po- ne- re,|no- li- te|
[Q:1/4=165] G4[Q:1/4=162] D4[Q:1/4=158] G8- |[Q:1/4=154] G4[Q:1/4=151] ^F4[Q:1/4=150] F8 |] %79
w: cor ap- po\-|* ne- re.|
V:2
 (D6 E2 F2 G2 A4- | A2 G2 F4) E4 E4 | z4 G4 (F2 E2 F2 G2 | A8) A8 | A4 A8 ^G4 | A16- | A8 z4 A4 | %7
w: Spe\- * * * *|* * * ra- te,|spe- ra\- * * *|* te|in Do- mi-|no,|* et|
 A8 A8- | A4 d8 ^c4 | d6 d2 d8 | z16 | z4 A4 F4 A4 | A4 A4 A6 A2 | (A6 G2 F2 E2 F2 G2 | A8) A6 A2 | %15
w: om- nis|* con- gre-|ga- ti- o,||et om- nis|con- gre- ga- ti-|o * * * * *|* po- pu-|
 A8 z8 | z8 z4 d4 | ^c4 d4 A8 | A4 A4 ^F4 A4 | z4 A8 ^G4 | A8 A4 d4- | d4 ^c4 d4 A4 | z16 | z16 | %24
w: li|ef-|fun- di- te|co- ram il- lo,|co- ram|il- lo cor\-|* da ve- stra,|||
 z8 c8 | B4 A4 G4 E4 | z8 A8 | G4 F4 D4 D4 | A16 | A4 d4 B4 c4 | B4 A4 G4 F4 | z16 | z8 z4 A4 | %33
w: De-|us ad- iu- tor,|De-|us ad- iu- tor|no-|ster, De- us ad-|iu- tor no- ster,||De-|
 ^G4 A4 B4 c4 | B4 A4 G4 F4 | E8 D8 | z4 d4 B4 A4 | ^G4 A4 A8 | F4 F4 E4 A4 | A16 |] D8 F4 E4 | %41
w: us ad- iu- tor|no- ster in ae-|ter- num,|De- us ad-|iu- tor no-|ster in ae- ter-|num.|No- li- te|
 (D2 E2 F2 D2 E4) (G4- | G2 FE F4) C8 | z8 z4 D4 | (F4 E2 F2 D4) G4 | E8 (3(F6 G2 A4) | (G8 A8) | %47
w: spe\- * * * * ra\-|* * * * re|no-|li\- * * * te|spe ra\- * *|re *|
 z16 | z16 | z4 (A6 G2 F2 E2 | D4) D4 d8 | d8 c8 | A4 d8 c4 | _B8 A8 | z16 | z8 A8 | G4 F8 E4 | %57
w: ||in * * *|* i- ni-|qui- ta-|te, & ra-|pi- nas,||et|ra- pi- nas,|
 z16 | z4 d8 c4 | _B8 A8 | z4 A4 G8 | F4 E4 G4 F4- | F4 F4 (F2 G2 A2 B2 | c8) z8 | z16 | z16 | %66
w: |et ra-|pi- nas,|no- li-|te con- cu- pi\-|* sce- re * * *||||
 z4 F4 A4 ^G4 | A16- | A8 z8 | c8 c4 c4 | c8 z8 | z16 | z4 A8 G4- | G4 F4 E8 | z4 c4 c4 A4 | %75
w: di- vi- ti-|ae||si af- flu-|ant||no- li\-|* te cor|no- li- te|
 A4 A4 A6 A2 | A8 z4 A4 | _B12 B4 | A16 |] %79
w: cor ap- po- ne-|re, ap-|po- ne-|re.|
V:3
 z4 (A6 G2 F2 E2 | D4) D8 ^C4 | D16 | D12 C4 | E8 E8- | E4 D8 ^C4 | D8 D4 F4 | E8 E8 | D8 E8 | %9
w: Spe\- * * *|* ra- te|in|Do- mi-|no, spe\-|* ra- te|in Do- mi-|no et|om- nis|
 z8 D8 | E4 (E6 D2 D4- | D4) ^C4 (3(D6 E2 F4) | (E8 F8) | E4 F4 z4 D4 | E4 F4 E8 | F8 E4 (D4- | %16
w: con-|gre- ga\- * *|* ti- o * *|po\- *|pu- li ef-|fun- di- te|co- ram il\-|
 D2 ^CB, C4) D4 F4 | E4 D4 ^C4 D4- | D4 ^C4 D4 E4 | F8 E8- | E8 F8 | (E8 D8) | z8 z4 G4- | %23
w: * * * * lo, ef-|fun- di- te co\-|* ram il- lo|cor- da|* ve-|stra *|De\-|
 G4 ^F4 G4 E4- | E4 E4 E8 | E4 E4 D4 C4 | (D6 E2 F4) E4- | E4 (C6 _B,A, B,4) | A,4 D8 ^C4 | %29
w: * us ad- iu\-|* tor no-|ster, De- us ad-|iu\- * * tor|* no\- * * *|ster in ae-|
 D8 E4 E4 | E4 E4 E4 D4 | E4 ^F4 G4 E4 | E8 E4 E4- | E4 E4 E8 | G4 F4 (D6 A,2 | C4 B,4 z4 D4 | %36
w: ter- num, De-|us ad- iu- tor|no- ster in ae-|ter- num, De\-|* us ad-|iu- tor no\- *|* ster, De-|
 E4 F4 E4 C4 | E8 D4 E4- | E2 D2 (D6 ^CB, C4) | D16 |] z16 | z16 | z16 | A,8 C4 B,4 | %44
w: us ad- iu- tor|no- ster in|* ae- ter\- * * *|num.||||No- li- te|
 A,2 B,2 C2 A,2 B,4) (D4- | D2 ^CB, C4) D4 D4 | E4 D8 C4- | C4 (D6 ^CB, C4) | D4 D8 D4 | %49
w: spe\- * * * * ra\-|* * * * re, no-|li- te spe\-|* ra\- * * *|re in i-|
 C4 C4 C4 C4 | z8 D8 | D4 F8 E4 | D4 D4 z8 | D6 D2 D8 | D4 G4 F4 E4 | D8 z8 | z4 D8 C4 | %57
w: ni- qui- ta- te,|in|i- ni- qui-|ta- te,|et ra- pi-|nas, et ra- pi-|nas,|et ra-|
 _B,8 (A,2 B,2 C2 A,2 | D8) z8 | D16 | C4 E8 D4- | D4 C4 D6 D2 | D12 A,4 | (E6 F2 E2 D2 C2 A,2 | %64
w: pi- nas * * *||no-|li- te con\-|* cu- pi- sce-|re, no-|li\- * * * * *|
 C4) B,4 C8 | C4 D8 ^C4 | D8 C4 E4- | E4 F4 E8 | F4 D8 C4 | C8 C8- | C8 D4 F4 | E4 (D6 ^CB, C4) | %72
w: * te con-|cu- pi- sce-|re, di- vi\-|* ti- ae,|di- vi- ti-|ae, di\-|* vi- ti-|ae si * * *|
 D4 D4 D8 | D8 C4 B,4 | C8 E4 D4- | D4 ^C4 D8 | z8 D8- | D8 D6 D2 | D16 |] %79
w: af- flu- ant|no- li- te|cor ap- po\-|* ne- re,|ap\-|* po- ne-|re.|
V:4
 z8 z4 D4- | D2 E2 F2 G2 A8 | _B4 G4 A8 | (D6 E2 F4) E4 | E8 z4 E4 | E4 F4 E8 | F4 F4 A8 | %7
w: Spe\-||ra- te in|Do\- * * mi-|no, spe-|ra- te in|Do- mi- no|
 z8 z4 A4 | A8 A8 | z4 _B4 A4 A4 | c4 c4 F4 G4 | E8 (D8 | A6) A2 D8 | z8 d8 | ^c4 d4 A8 | %15
w: et|om- nis,|et om- nis|con- gre- ga- ti-|o po\-|* pu- li|ef-|fun- di- te|
 A4 A4 A8 | (A6 G2 F2 G2 A4) | z4 D4 E4 F4 | E8 z8 | z8 z4 E4- | E4 E4 D4 D4 | A4 A4 A8 | c8 z8 | %23
w: co- ram il-|lo, * * * *|ef- fun- di-|te|co\-|* ram il- lo|cor- da ve-|stra|
 z16 | z8 z4 A4 | B4 c4 B4 (A4- | A2 ^G^F G4) A4 A4 | z16 | z16 | z4 A4 ^G4 A4 | B4 c4 B4 A4 | %31
w: |De-|us ad- iu- tor|* * * * no- ster|||De- us ad-|iu- tor no- ster|
 B4 d8 c4 | (B8 A8) | z16 | z16 | z16 | z4 A4 ^G4 A4 | B4 c4 F4 E4 | F4 D4 E8 | D16 |] z16 | z16 | %42
w: in ae- ter-|num, *||||De- us ad-|iu- tor no- ster|in ae- ter-|num.|||
 D8 F4 E4 | (D2 E2 F2 D2 E2 F2 G4) | (F2 G2 A2 F2 G8 | A8) D8 | z16 | z8 z4 (A4- | %48
w: No- li- te|spe\- * * * * * *|ra\- * * * *|* re||in|
 A2 G2 F2 E2 D6 E2 | F4) E4 F8 | G4 A4 A4 _B4- | B4 A4 A4 G4 | F8 E8 | z16 | z4 d8 c4 | _B8 A8 | %56
w: |* i- ni-|qui- ta- te, in|* i- ni- qui-|ta- te,||et ra-|pi- nas,|
 z16 | z8 z4 A4 | G4 F8 E4 | z16 | z16 | A8 G4 (D4- | D2 E2 F2 G2 A4) d4 | G4 (c6 B2 A4- | %64
w: |et|ra- pi- nas|||no- li- te|* * * * * con-|cu- pi\- * *|
 A4) ^G4 (A6 =G2 | F8) z8 | z4 D4 F4 E4 | A16 | D8 F6 F2 | C8 z4 F4 | A4 G4 A8 | A16 | A12 _B4 | %73
w: * sce- re *||di- vi- ti-|ae,|si af- flu-|ant, di-|vi- ti- ae|si|af- flu-|
 A8 z8 | z16 | z8 z4 D4 | E4 ^F4 G4 A4 | G8 G8 | A16 |] %79
w: ant||no-|li- te cor ap-|po- ne-|re.|
V:5
 z16 | z16 | z8 (D6 E2 | F2 G2 A4) (A6 B2 | c8) B8 | A8 A8- | A4 A4 (F6 G2 | A4) A4 A4 E4 | %8
w: ||Spe\- *|* * * ra\- *|* te|in Do\-|* mi- no *|* et om- nis|
 F4 F4 E6 E2 | D8 z8 | z4 C4 D4 D4 | A8 A4 d4- | d4 ^c4 d4 A4- | A4 D4 D8 | z16 | z4 D4 E4 F4 | %16
w: con- gre- ga- ti-|o,|et om- nis|con- gre- ga\-|* ti- o po\-|* pu- li||ef- fun- di-|
 E8 D4 D4 | (A2 G2 ^F2 G2 A8) | A8 A8- | A4 d4 B8 | A16 | z16 | z4 A4 B4 c4 | (B2 c2 d8) c4 | %24
w: te co- ram|il\- * * * *|lo cor\-|* da ve-|stra,||De- us ad-|iu\- * * tor|
 B8 c8 | z16 | z8 z4 E4- | E4 F4 G8 | D4 D4 A8 | D8 z8 | z16 | z16 | z16 | z4 A4 ^G4 A4 | %34
w: no- ster,||De\-|* us ad-|iu- tor no-|ster||||De- us ad-|
 E4 F4 G4 D4 | E6 E2 A8 | A8 z8 | z4 A8 A4 | A16 | A16 |] z16 | z16 | z16 | z16 | z16 | z8 A8 | %46
w: iu- tor no- ster|in ae- ter-|num,|in ae-|ter-|num.||||||No-|
 c4 B4 A8 | (G6 D2 E8) | F4 A8 G4 | A16 | _B4 F8 F4 | z16 | A8 A8 | G8 D8 | G8 A8 | z4 d8 c4 | %56
w: li- te spe-|ra\- * *|re in i-|ni-|qui- ta- te,||in i-|ni- qui-|ta- te,|et ra-|
 _B8 (A8 | d8) z8 | z8 A8 | G4 (D6 E2 F2 G2 | A6 GF E2 F2 G4) | D4 A4 _B6 B2 | A8 z8 | z16 | z16 | %65
w: pi- nas||no-|li- te * * *||con- cu- pi- sce-|re,|||
 z4 D4 F4 E4 | F4 A4 A4 B4 | c4 (d6 ^cB c4) | (d6"^(  )" cB A8) | G8 A8 | z8 D8 | E4 F4 E4 E4 | %72
w: di- vi- ti-|ae, di- vi- ti-|ae si * * *|af\- * * *|flu- ant,|di-|vi- ti- ae si|
 (D6 E2 ^F4) G4 | D8 z8 | z16 | z16 | z4 D4 D4 D4 | D4 D4 D6 D2 | D16 |] %79
w: af\- * * flu-|ant,|||no- li- te|cor ap- po- ne-|re.|
V:6
 z16 | z16 | z8 z4 (A,4- | A,2 G,2 F,2 E,2 D,4) (A,,4- | A,,2 B,,2 C,2 D,2 E,8) | %5
w: ||Spe\-|* * * * * ra\-||
 ^C,4 D,4 A,,6 A,,2 | D,16 | z8 A,,8 | D,8 A,,8 | ^F,,4 G,,4 D,6 D,2 | C,8 _B,,4 G,,4 | A,,8 z8 | %12
w: te in Do- mi-|no,|et|om- nis|con- gre- ga- ti-|o po- pu-|li|
 z16 | z16 | z16 | D,8 ^C,4 D,4 | A,,8 z8 | z8 A,,8 | A,,8 D,4 ^C,4 | D,4 D,4 E,8 | A,,8 z8 | %21
w: |||ef- fun- di-|te|co-|ram il- lo|cor- da ve-|stra,|
 z8 D,8 | E,4 F,4 E,8- | E,4 D,4 E,8- | E,8 A,,4 A,,4 | ^G,,4 A,,4 B,,4 C,4 | B,,8 A,,8 | z16 | %28
w: De-|us ad- iu\-|* tor no\-|* ster, De-|us ad- iu- tor|no- ster||
 z16 | z8 z4 A,,4 | ^G,,4 A,,4 E,4 F,4 | E,4 D,4 G,4 A,4 | E,8 A,,8 | z16 | z16 | z8 D,8 | %36
w: |De-|us ad- iu- tor|no- ster in ae-|ter- num,|||De-|
 ^C,4 D,4 E,4 F,4 | E,4 A,,4 D,4 ^C,4 | (D,8 A,,8) | D,16 |] z16 | z16 | z16 | z16 | z16 | z16 | %46
w: us ad- iu- tor|no- ster in ae-|ter\- *|num.|||||||
 z8 A,,8 | C,4 B,,4 A,,8 | (D,6 C,2 _B,,8) | A,,8 z8 | z4 (D,6 C,2 _B,,2 A,,2 | G,,4) D,4 F,4 C,4 | %52
w: No-|li- te spe-|ra\- * *|re|in * * *|* i- ni- qui-|
 D,8 A,,8 | z16 | z16 | z16 | z16 | z4 D,8 C,4 | _B,,8 A,,8 | z16 | z16 | z16 | z8 D,8 | %63
w: ta- te,|||||et ra-|pi- nas||||no-|
 C,4 (A,,6 B,,2 C,2 D,2 | E,8) z4 A,,4- | A,,4 _B,,4 A,,6 A,,2 | D,8 z8 | z16 | z4 D,8 F,4- | %69
w: li- te * * *|* con\-|* cu- pi- sce-|re,||di- vi\-|
 F,4 E,4 F,8- | F,4 E,4 F,4 D,4 | A,,16 | z16 | z4 D,4 E,8- | E,4 F,4 C,4 D,4 | A,,6 A,,2 D,4 D,4 | %76
w: * ti- ae|* si af- flu-|ant||no- li\-|* te cor ap-|po- ne- re, no-|
 ^C,4 D,4 G,,4 ^F,,4 | G,,12 G,,4 | D,16 |] %79
w: li- te cor ap-|po- ne-|re.|

